packages/sights/assets/overlays/vLcBGkeh.svg

<svg width="500" height="375" viewBox="0 0 500 375" fill="none" xmlns="http://www.w3.org/2000/svg">
<path d="M121.17 89.1201C121.17 89.1201 147.54 30.8801 154.17 24.6901C154.17 24.6901 162.77 13.5101 185.7 10.3601C185.7 10.3601 245.28 2.29011 312.85 10.3601C324.488 11.7642 335.313 17.0484 343.579 25.3601C343.579 25.3601 373.7 80.0001 373.85 88.1301C373.85 88.1301 461.45 159.06 452.27 249.86L436.27 311.77L367.94 355.77C367.94 355.77 251.94 371.82 129.47 355.77L61.5495 315L42.2895 250.8C42.2895 250.8 29.8995 160 121.17 89.1201Z" stroke="white" stroke-miterlimit="10"/>
<path d="M125.55 79.59C125.55 79.49 125.01 65.39 125.01 65.39L118.93 62.75C118.93 62.75 104.77 63.15 97.3203 70.55L98.5803 77L103.58 84.16C108.716 86.6758 114.043 88.7823 119.51 90.46" stroke="white" stroke-miterlimit="10"/>
<path d="M371.75 81.1404L372.17 66.0004L378.17 62.9004C378.17 62.9004 394.72 63.0004 400 71.0004L398.4 77.4204L393.35 84.4204L376.86 90.6504" stroke="white" stroke-miterlimit="10"/>
<path d="M171.15 304.66H323.18L320.43 330.8H175.05L171.15 304.66Z" stroke="white" stroke-miterlimit="10"/>
<path d="M90.9004 251.39L122.46 222.39C122.46 222.39 280.67 236.61 371.75 222.39L400 248L378.22 281.24L366.3 285.6C366.3 285.6 223.95 297.52 125.56 283.77L114.76 278.72L90.9004 251.39Z" stroke="white" stroke-miterlimit="10"/>
<path d="M371.75 222.34C371.75 222.34 440.16 191.5 443.08 184.07L446.92 210L443.87 217.34C443.87 217.34 429 237.48 400 248" stroke="white" stroke-miterlimit="10"/>
<path d="M122.46 222.34C122.46 222.34 57.1798 191.8 51.2598 184.07" stroke="white" stroke-miterlimit="10"/>
<path d="M90.9009 251.39C90.9009 251.39 56.5009 230.45 48.9009 213.32L45.7109 204.16" stroke="white" stroke-miterlimit="10"/>
<path d="M158 26.6801L162.58 24.0801C162.58 24.0801 284 12.9201 334 24.0801L340.72 28.0001C340.72 28.0001 364.6 67.9401 371.72 92.4001C371.72 92.4001 274.51 111.96 125.52 92.4001C125.55 92.4101 148.68 34.3201 158 26.6801Z" stroke="white" stroke-miterlimit="10"/>
<path d="M408.251 285.48L422.621 269.43L448.911 251.24L442.001 277.83C442.001 277.83 417.541 298.32 416.631 298.47C415.721 298.62 405.471 299.39 405.471 299.39L408.251 285.48Z" stroke="white" stroke-miterlimit="10"/>
<path d="M88.1505 285.63L73.7805 269.58L47.4805 251.39L54.3605 278C54.3605 278 78.8205 298.48 79.7405 298.63C80.6605 298.78 90.9005 299.55 90.9005 299.55L88.1505 285.63Z" stroke="white" stroke-miterlimit="10"/>
</svg>

<svg width="500" height="375" fill="none" xmlns="http://www.w3.org/2000/svg"><path d="M121.17 89.12s26.37-58.24 33-64.43c0 0 8.6-11.18 31.53-14.33 0 0 59.58-8.07 127.15 0a52.147 52.147 0 0 1 30.729 15S373.7 80 373.85 88.13c0 0 87.6 70.93 78.42 161.73l-16 61.91-68.33 44s-116 16.05-238.47 0L61.55 315l-19.26-64.2S29.9 160 121.17 89.12Z" stroke="#fff" stroke-miterlimit="10"/><path d="M125.55 79.59c0-.1-.54-14.2-.54-14.2l-6.08-2.64s-14.16.4-21.61 7.8L98.58 77l5 7.16a108.724 108.724 0 0 0 15.93 6.3M371.75 81.14l.42-15.14 6-3.1S394.72 63 400 71l-1.6 6.42-5.05 7-16.49 6.23M171.15 304.66h152.03l-2.75 26.14H175.05l-3.9-26.14ZM90.9 251.39l31.56-29s158.21 14.22 249.29 0L400 248l-21.78 33.24-11.92 4.36s-142.35 11.92-240.74-1.83l-10.8-5.05-23.86-27.33ZM371.75 222.34s68.41-30.84 71.33-38.27l3.84 25.93-3.05 7.34S429 237.48 400 248M122.46 222.34s-65.28-30.54-71.2-38.27M90.9 251.39s-34.4-20.94-42-38.07l-3.19-9.16M158 26.68l4.58-2.6S284 12.92 334 24.08l6.72 3.92s23.88 39.94 31 64.4c0 0-97.21 19.56-246.2 0 .03.01 23.16-58.08 32.48-65.72ZM408.251 285.48l14.37-16.05 26.29-18.19-6.91 26.59s-24.46 20.49-25.37 20.64c-.91.15-11.16.92-11.16.92l2.78-13.91ZM88.15 285.63l-14.37-16.05-26.3-18.19L54.36 278s24.46 20.48 25.38 20.63c.92.15 11.16.92 11.16.92l-2.75-13.92Z" stroke="#fff" stroke-miterlimit="10"/></svg>
